public/assets/leftQuotes.svg

<svg width="50" height="50" viewBox="0 0 50 50" fill="none" xmlns="http://www.w3.org/2000/svg">
<g clip-path="url(#clip0)">
<path d="M0.0106002 34.6954C0.0106002 41.2691 5.33927 46.5977 11.9128 46.5977C18.4865 46.5977 23.8151 41.2691 23.8151 34.6954C23.8151 28.1218 18.4865 22.7932 11.9128 22.7932C10.5619 22.7932 9.26866 23.0287 8.05803 23.4437C10.7365 8.08178 22.7159 -1.82494 11.6111 6.32849C-0.702527 15.3697 -0.00258768 34.3317 0.0111907 34.6792C0.0111907 34.6846 0.0106002 34.6894 0.0106002 34.6954Z" fill="#B86767"/>
<path d="M26.1954 34.6954C26.1954 41.2691 31.5241 46.5977 38.0977 46.5977C44.6714 46.5977 50.0001 41.2691 50.0001 34.6954C50.0001 28.1218 44.6713 22.7932 38.0977 22.7932C36.7466 22.7932 35.4535 23.0287 34.2429 23.4437C36.9214 8.08178 48.9007 -1.82494 37.7959 6.32849C25.4823 15.3697 26.1822 34.3317 26.196 34.6792C26.196 34.6846 26.1954 34.6894 26.1954 34.6954Z" fill="#B86767"/>
</g>
<defs>
<clipPath id="clip0">
<rect width="50" height="50" fill="white"/>
</clipPath>
</defs>
</svg>

<svg width="50" height="50" fill="none" xmlns="http://www.w3.org/2000/svg"><g clip-path="url(#a)" fill="#B86767"><path d="M.01 34.695c0 6.574 5.33 11.903 11.903 11.903s11.902-5.329 11.902-11.903c0-6.573-5.329-11.902-11.902-11.902-1.351 0-2.644.236-3.855.65C10.736 8.083 22.716-1.824 11.611 6.329-.703 15.37-.003 34.332.011 34.68v.016ZM26.195 34.695c0 6.574 5.33 11.903 11.903 11.903S50 41.269 50 34.695c0-6.573-5.329-11.902-11.902-11.902-1.351 0-2.645.236-3.855.65C36.92 8.083 48.9-1.824 37.796 6.329c-12.314 9.042-11.614 28.004-11.6 28.351v.016Z"/></g><defs><clipPath id="a"><path fill="#fff" d="M0 0h50v50H0z"/></clipPath></defs></svg>
